source/img/sprite/process-mountain.svg

<svg width="25" height="25" viewBox="0 0 25 25" fill="none" xmlns="http://www.w3.org/2000/svg">
  <g clip-path="url(#clip0_17115_902)">
    <path
      d="M23.4153 24.1883L15.5583 5.90781C15.4551 5.66541 15.1749 5.55265 14.9325 5.65587C14.8192 5.70417 14.7289 5.79445 14.6806 5.90781L9.93871 16.9181L7.00963 10.1583C6.90634 9.91592 6.62614 9.80316 6.3838 9.90638C6.27044 9.95468 6.18016 10.045 6.13186 10.1583L3.37928 16.5174L0.0399368 24.1836C-0.0654315 24.425 0.0448861 24.7062 0.286333 24.8116C0.347037 24.8381 0.412572 24.8517 0.478822 24.8514H22.9765C23.2399 24.8512 23.4533 24.6375 23.4531 24.374C23.4531 24.3102 23.4402 24.2471 23.4153 24.1883ZM15.1147 7.29603L18.2107 14.4947H17.1231L15.1576 12.3241C14.9804 12.1291 14.6787 12.1148 14.4837 12.292C14.4531 12.3198 14.4263 12.3514 14.4039 12.3861L13.6692 13.5215H12.4384L15.1147 7.29603ZM6.57074 11.5322L9.018 17.19H7.68226C7.52007 17.1903 7.36914 17.273 7.28154 17.4095L6.80449 18.168L5.57371 16.4315C5.48474 16.3032 5.33864 16.2266 5.18253 16.2264H4.54805L6.57074 11.5322ZM1.22779 23.8973L4.13302 17.1805H4.93446L6.42285 19.3034C6.51182 19.4316 6.65792 19.5082 6.81403 19.5085C6.97283 19.505 7.11947 19.4227 7.20522 19.289L7.93987 18.1537H9.42826L11.9137 23.8783L1.22779 23.8973ZM12.9584 23.8973L10.4587 18.125L12.0282 14.4756H13.9364C14.0986 14.4753 14.2495 14.3927 14.3371 14.2562L14.8666 13.4404L16.5554 15.3057C16.6455 15.4056 16.7738 15.4628 16.9084 15.4631H18.6162L22.2466 23.9116L12.9584 23.8973Z"
      fill="#2D383F" />
    <path
      d="M7.61068 2.08188C7.16065 0.922592 5.85598 0.347688 4.69675 0.797784C3.83359 1.13285 3.26357 1.9622 3.26 2.88809C3.25529 2.97074 3.25529 3.05351 3.26 3.13616C2.13213 3.65996 1.6425 4.99892 2.1663 6.12678C2.52904 6.90777 3.30543 7.4135 4.16639 7.4296L4.19024 7.44869H7.52959C9.0116 7.47111 10.2311 6.28785 10.2535 4.80583C10.2759 3.32382 9.0927 2.1043 7.61068 2.08188ZM7.55821 6.5089H4.21886C3.50484 6.58266 2.86625 6.06369 2.79249 5.34967C2.71872 4.63564 3.23769 3.99706 3.95172 3.92329C4.20998 3.87123 4.37719 3.61971 4.32513 3.36139C4.32113 3.34165 4.31594 3.32215 4.3095 3.30313C4.26293 3.16967 4.23878 3.02942 4.23795 2.88809C4.23389 2.17145 4.81148 1.58724 5.52813 1.58313C6.16207 1.57949 6.70578 2.03447 6.81401 2.65911C6.85784 2.90992 7.09094 3.08207 7.34354 3.05029C7.41504 3.04558 7.48671 3.04558 7.55821 3.05029C8.51326 3.05029 9.28751 3.82454 9.28751 4.77959C9.28751 5.73465 8.51326 6.5089 7.55821 6.5089Z"
      fill="#2D383F" />
    <path
      d="M23.6967 2.63997C23.7014 2.55733 23.7014 2.47456 23.6967 2.39191C23.6919 1.14836 22.6799 0.144172 21.4363 0.148943C20.5172 0.152521 19.6938 0.714604 19.354 1.56727C17.8795 1.59816 16.7047 2.81392 16.727 4.29057C16.7494 5.77258 17.9689 6.95584 19.451 6.93342H22.7903C24.0337 6.91016 25.0228 5.88343 24.9995 4.64006C24.9834 3.77911 24.4777 3.00271 23.6967 2.63997ZM24.056 4.94758C23.9297 5.54008 23.4103 5.96632 22.8046 5.97455H19.4653C18.5102 5.97455 17.736 5.2003 17.736 4.24525C17.736 3.29019 18.5102 2.51594 19.4653 2.51594C19.5368 2.51123 19.6084 2.51123 19.6799 2.51594C19.9213 2.54099 20.143 2.38088 20.1952 2.14384C20.3147 1.43727 20.9844 0.961417 21.6911 1.08098C22.3976 1.20054 22.8735 1.87026 22.7539 2.57688C22.7418 2.64862 22.7236 2.71922 22.6997 2.78792C22.6154 3.03754 22.7495 3.3082 22.9992 3.39246C23.0183 3.3989 23.0377 3.40415 23.0574 3.40808C23.7584 3.5574 24.2054 4.24668 24.056 4.94758Z"
      fill="#2D383F" />
  </g>
  <defs>
    <clipPath id="clip0_17115_902">
      <rect width="25" height="25" fill="white" />
    </clipPath>
  </defs>
</svg>

<svg viewBox="0 0 25 25" fill="none" xmlns="http://www.w3.org/2000/svg"><g clip-path="url(#a)" fill="#2D383F"><path d="m23.42 24.19-7.86-18.28a.48.48 0 0 0-.88 0l-4.74 11-2.93-6.75a.48.48 0 0 0-.88 0l-2.75 6.36-3.34 7.66a.48.48 0 0 0 .44.67h22.5a.48.48 0 0 0 .44-.66Zm-8.3-16.9 3.1 7.2h-1.1l-1.96-2.17a.48.48 0 0 0-.76.07l-.73 1.13h-1.23l2.67-6.22Zm-8.55 4.24 2.45 5.66h-1.34a.48.48 0 0 0-.4.22l-.48.76-1.23-1.74a.48.48 0 0 0-.39-.2h-.63l2.02-4.7Zm-5.34 12.37 2.9-6.72h.8l1.5 2.12c.08.13.23.2.38.2a.5.5 0 0 0 .4-.21l.73-1.14h1.49l2.48 5.73-10.68.02Zm11.73 0-2.5-5.77 1.57-3.65h1.9c.17 0 .32-.09.4-.22l.54-.82 1.69 1.87c.09.1.21.15.35.15h1.7l3.64 8.45-9.3-.01Zm-5.35-21.82a2.25 2.25 0 0 0-4.35.8v.26a2.25 2.25 0 0 0 .9 4.29l.03.02h3.34a2.68 2.68 0 1 0 .08-5.37Zm-.05 4.43h-3.34a1.3 1.3 0 1 1-.27-2.59.48.48 0 0 0 .36-.62 1.3 1.3 0 1 1 2.5-.64c.05.25.28.42.53.39h.22a1.73 1.73 0 0 1 0 3.46Zm16.14-3.87v-.25a2.25 2.25 0 0 0-4.35-.82 2.68 2.68 0 0 0 .1 5.36h3.34a2.25 2.25 0 0 0 .9-4.29Zm.36 2.3a1.3 1.3 0 0 1-1.26 1.03h-3.33a1.73 1.73 0 1 1 0-3.45h.21a.5.5 0 0 0 .52-.38 1.3 1.3 0 1 1 2.5.65.48.48 0 0 0 .36.62c.7.15 1.15.84 1 1.54Z"/></g><defs><clipPath id="a"><path fill="#fff" d="M0 0h25v25h-25z"/></clipPath></defs></svg>
